X: 9
T:Sir Roger de Coverley
% Nottingham Music Database
S:Trad
Y:AB
M:9/8
K:G
P:A
B/2A/2|:"G"G2G "C"G2e "G"dBG|"C"A2A "A7"ABG "D7"FED|"G"G2G "C"G2e "D7"def|\
"G"g2G "A7"GAG "D7"FED:|
P:B
"G"dBd "C"ece "G"dBG|"C"A2A "A7"ABG "D7"FED|"G"dBd "C"ece "G"def|\
"G"g2G "A7"GAG "D7"FED:|


